X:1
T:Title
%%score 1 { 2 | 3 }
L:1/8
Q:1/4=100
M:4/4
K:Ab
V:1 treble nm="Grand Piano, Soprano"
V:2 bass nm="Choir Pad, Guideth Me"
V:3 bass 
V:1
 [Ec]3 [DB] [CA][DF][CE][A,C] | E2 D2 C2 z2 | [B,E]3 [=DF] [EG][DA][DB][Dc] | [EB]6 z2 | %4
w: By~Fred~A.~Worden * * * * *||||
 [Ec]3 [DB] [CA][DF][CE][A,C] | E2 D2 C2 z2 | [CF]3 [Fd] [Fc][FB][EA][DG] | [CA]6 z2 | %8
w: ||||
 [DG]3 [DE] [DB]4 | [CA]3 [CE] [Ec]4 | [Ee]3 [Ed] [Ec][=DB][DA][Dc] | [EB]6 z2 | %12
w: ||||
 [Ec]3 [DB] [CA][DF][CE][A,C] | E2 D2 C2 z2 | [CF]3 [Fd] [Fc][FB][EA][EG] | [CA]8 |] %16
w: ||||
V:2
 A,3 A, A,A,A,E, | A,2 G,2 A,2 z2 | G,3 B, B,B,B,A, | G,6 z2 | A,3 A, A,A,A,E, | A,2 G,2 A,2 z2 | %6
 A,3 B, A,B,CB, | A,6 z2 | z4 G,G, G,2 | z4 A,A, A,2 | C3 B, A,F,B,A, | G,6 z2 | A,3 A, A,A,A,E, | %13
 A,2 G,2 A,2 z2 | A,3 B, A,B,CB, | A,8 |] %16
V:3
 A,,3 A,, A,,A,,A,,A,, | C,2 B,,2 A,,2 z2 | B,,3 B,, B,,B,,B,,B,, | E,6 z2 | %4
 A,,3 A,, A,,A,,A,,A,, | C,2 B,,2 A,,2 z2 | F,3 B,, C,D,E,E, | A,,6 z2 | z4 E,E, E,2 | %9
 z4 A,,A,, A,,2 | A,,3 A,, A,,B,,B,,B,, | E,6 z2 | A,,3 A,, A,,A,,A,,A,, | C,2 B,,2 A,,2 z2 | %14
 F,3 B,, C,D,E,E, | A,,8 |] %16

